logo/dockbit.svg

<?xml version="1.0" encoding="UTF-8"?>
<svg width="256px" height="286px" viewBox="0 0 256 286" version="1.1" xmlns="http://www.w3.org/2000/svg" xmlns:xlink="http://www.w3.org/1999/xlink" preserveAspectRatio="xMidYMid">
    <defs>
        <linearGradient x1="77.0408937%" y1="13.1836579%" x2="22.8410618%" y2="87.5393848%" id="linearGradient-1">
            <stop stop-color="#7236DC" offset="0%"></stop>
            <stop stop-color="#3F37AE" offset="100%"></stop>
        </linearGradient>
    </defs>
    <g>
        <path d="M240.48144,60.1304836 L143.524809,4.15951581 C133.917883,-1.38550527 122.086283,-1.38550527 112.479357,4.15951581 L15.5227262,60.1304836 C5.91996615,65.6796707 0,75.9281695 0,87.0182116 L0,198.972645 C0,210.062688 5.91996615,220.311186 15.5227262,225.856207 L112.479357,281.839673 C122.086283,287.384694 133.917883,287.384694 143.524809,281.839673 L240.48144,225.856207 C250.0842,220.311186 256,210.062688 256,198.972645 L256,87.0182116 C256,75.9281695 250.0842,65.6796707 240.48144,60.1304836 L240.48144,60.1304836 Z M231.166138,196.048074 C231.166138,199.376753 229.391398,202.451302 226.508487,204.117725 L203.82431,217.215806 C200.941399,218.878063 197.391919,218.878063 194.509007,217.215806 L171.820664,204.117725 C168.941919,202.455469 167.167179,199.376753 167.167179,196.048074 L167.167179,169.851911 C167.167179,166.523232 168.941919,163.452848 171.820664,161.786426 L194.509007,148.688345 C197.391919,147.026088 200.941399,147.026088 203.82431,148.688345 L226.508487,161.786426 C229.391398,163.448682 231.166138,166.523232 231.166138,169.851911 L231.166138,196.048074 Z" fill="url(#linearGradient-1)"></path>
    </g>
</svg>

<svg viewBox="0 0 256 286" xmlns="http://www.w3.org/2000/svg"><defs><linearGradient id="a" x1="77.04%" x2="22.841%" y1="13.183%" y2="87.539%"><stop offset="0%" stop-color="#7236DC"/><stop offset="100%" stop-color="#3F37AE"/></linearGradient></defs><path fill="url(#a)" d="M240.48 60.13L143.52 4.15c-9.61-5.55-21.44-5.55-31.05 0L15.51 60.12C5.9 65.66-.02 75.91-.02 87v111.95c0 11.09 5.91 21.33 15.52 26.88l96.95 55.98c9.6 5.54 21.43 5.54 31.04 0l96.95-55.99c9.6-5.55 15.51-15.8 15.51-26.89V86.97c0-11.1-5.92-21.34-15.52-26.89v0Zm-9.32 135.91c0 3.32-1.78 6.4-4.66 8.06l-22.69 13.09c-2.89 1.66-6.44 1.66-9.32 0l-22.69-13.1c-2.88-1.67-4.66-4.75-4.66-8.07v-26.2c0-3.33 1.77-6.4 4.65-8.07l22.68-13.1c2.88-1.67 6.43-1.67 9.31 0l22.68 13.09c2.88 1.66 4.65 4.73 4.65 8.06v26.19Z"/></svg>
